material/.icons/material/code-tags-check.svg

<svg xmlns="http://www.w3.org/2000/svg" viewBox="0 0 24 24"><path d="M6.59 3.41L2 8l4.59 4.6L8 11.18 4.82 8 8 4.82 6.59 3.41m5.82 0L11 4.82 14.18 8 11 11.18l1.41 1.42L17 8l-4.59-4.59m9.18 8.18l-8.09 8.09L9.83 16l-1.41 1.41 5.08 5.09L23 13l-1.41-1.41z"/></svg>

<?xml version="1.0" encoding="UTF-8"?><!DOCTYPE svg PUBLIC "-//W3C//DTD SVG 1.1//EN" "http://www.w3.org/Graphics/SVG/1.1/DTD/svg11.dtd"><svg xmlns="http://www.w3.org/2000/svg" xmlns:xlink="http://www.w3.org/1999/xlink" version="1.1" id="mdi-code-tags-check" width="24" height="24" viewBox="0 0 24 24"><path d="M6.59,3.41L2,8L6.59,12.6L8,11.18L4.82,8L8,4.82L6.59,3.41M12.41,3.41L11,4.82L14.18,8L11,11.18L12.41,12.6L17,8L12.41,3.41M21.59,11.59L13.5,19.68L9.83,16L8.42,17.41L13.5,22.5L23,13L21.59,11.59Z" /></svg>
